web/public/assets/ZealLogoAlt.svg

<svg width="74" height="50" viewBox="0 0 74 50" fill="none" xmlns="http://www.w3.org/2000/svg">
<g clip-path="url(#clip0_45_4538)">
<path d="M29.4671 7.2C30.1337 7.06667 30.8004 7.06667 31.4671 7.06667C30.4004 6.13333 29.7337 4.8 29.7337 4.8C30.0004 6 29.8671 6.8 29.4671 7.2ZM17.8671 9.2C20.6671 8.53333 24.0004 8 27.3337 7.46667C23.6004 6.66667 17.0671 2 17.0671 2C19.8671 5.2 19.6004 7.46667 17.8671 9.2ZM5.20039 32.2667C22.2671 28 11.4671 39.7333 11.4671 39.7333C13.3337 38.5333 14.9337 37.6 16.5337 36.9333C17.6004 34.8 18.5337 32.9333 19.2004 31.8667C21.3337 28 28.2671 15.6 28.5337 15.0667C28.8004 14.5333 28.8004 14 27.8671 14.2667C26.8004 14.5333 13.6004 18.4 7.60039 22.2667C7.60039 22.2667 7.33372 21.6 7.20039 20.1333C5.20039 22 2.40039 23.3333 2.40039 23.3333C18.8004 24.8 5.20039 32.2667 5.20039 32.2667V32.2667ZM8.13372 12.8C6.26706 13.2 4.93372 13.2 4.93372 13.2C6.13372 13.7333 7.06706 14.1333 7.73372 14.6667C7.86706 14.1333 8.00039 13.4667 8.13372 12.8ZM52.4004 21.0667C52.4004 21.0667 54.8004 20.5333 55.2004 20.5333C55.0671 19.4667 54.1337 14.9333 54.1337 14.9333L52.4004 21.0667V21.0667Z" fill="black"/>
<path d="M60.6671 9.86634C60.6671 9.86634 61.8671 9.33301 64.8004 9.33301C64.5337 11.5997 62.8004 22.133 62.8004 22.133L64.0004 22.533L68.5337 21.5997L69.7337 25.0663C69.7337 25.0663 62.5337 26.2663 61.4671 26.2663V24.7997C61.4671 24.7997 60.8004 24.2663 60.4004 23.9997C60.5337 21.733 60.6671 9.86634 60.6671 9.86634Z" stroke="black" stroke-width="0.5" stroke-miterlimit="10"/>
<path d="M72.0007 24.5333C70.934 24.4 70.0007 24.1333 69.2007 24L69.6007 25.2C69.6007 25.2 62.4007 26.4 61.334 26.4V24.9333C61.334 24.9333 60.6674 24.4 60.2674 24.1333C60.534 21.7333 60.6674 9.86667 60.6674 9.86667H60.8007C60.0007 7.73333 60.2674 5.46667 60.2674 5.46667C45.6007 16.2667 48.5341 3.33333 48.5341 3.33333C42.6674 12.8 37.8674 2 37.8674 2C36.934 4.4 35.8674 5.86667 35.0674 6.8H38.2674C38.2674 6.8 34.8007 17.4667 31.8674 24.4C29.8674 29.2 28.0007 33.3333 27.0674 35.6C28.0007 35.8667 28.8007 36.2667 29.4674 36.6667L40.8007 31.4667C40.8007 31.4667 40.2674 37.4667 40.534 40.6667C39.734 40.9333 38.0007 41.6 35.8674 42.5333C38.134 44.9333 40.534 48 40.534 48C38.8007 30.4 53.334 44.5333 53.334 44.5333C45.8674 32 61.6007 37.3333 61.6007 37.3333C51.734 30.2667 72.0007 24.5333 72.0007 24.5333V24.5333ZM39.734 29.0667C39.734 28.1333 39.4674 27.4667 39.4674 27.4667L38.4007 26.9333V17.8667L37.2007 17.7333L39.8674 11.3333C39.8674 11.3333 44.1341 10.4 46.2674 10.5333C46.5341 12.8 46.9341 15.8667 46.9341 15.8667L42.534 16.8L42.1341 18.9333C42.6674 18.9333 43.4674 18.8 44.2674 18.6667C44.2674 19.4667 44.134 21.4667 44.134 21.4667C44.134 21.4667 42.534 21.6 41.734 21.7333L41.2007 25.0667L47.0674 24.2667C47.0674 24.2667 47.4674 27.2 47.4674 27.7333C46.0007 28.2667 41.8674 28.8 39.734 29.0667V29.0667ZM55.334 24L51.334 24.6667L50.8007 27.6C50.8007 27.6 50.0007 27.7333 49.334 27.8667V26.4L48.0007 25.6L50.4007 11.0667C50.4007 11.0667 52.6674 10.1333 56.0007 10.2667C57.0674 14.5333 59.334 26.6667 59.334 26.6667L56.5341 27.3333L55.334 24Z" fill="black"/>
<path d="M62.667 22.2669L63.867 22.6669L65.467 22.4002C61.3337 18.9335 68.1337 13.4669 68.1337 13.4669C66.5337 13.7335 65.2003 13.6002 64.1337 13.2002C63.6003 17.0669 62.667 22.2669 62.667 22.2669V22.2669Z" fill="black"/>
<path d="M8.66686 11.3335C8.66686 11.3335 25.3335 6.53346 38.2669 6.66679C38.2669 6.66679 34.8002 17.3335 31.8669 24.2668C29.0669 31.2001 26.5335 36.5335 26.2669 37.2001C26.0002 37.8668 26.8002 37.7335 26.8002 37.7335L40.8002 31.3335C40.8002 31.3335 40.2669 37.3335 40.5335 40.5335C38.8002 41.2001 33.3335 43.4668 27.4669 45.3335C20.2669 47.8668 12.4002 49.7335 10.0002 49.7335C10.0002 49.7335 16.9335 35.8668 19.0669 31.8668C21.2002 28.0001 28.1335 15.6001 28.4002 15.0668C28.6669 14.5335 28.6669 14.0001 27.7335 14.2668C26.6669 14.5335 13.4669 18.4001 7.46686 22.2668C7.46686 22.4001 6.13352 19.4668 8.66686 11.3335V11.3335Z" stroke="black" stroke-width="0.5" stroke-miterlimit="10"/>
<path d="M9.06699 40.1333L11.2003 38.7999C13.3337 37.4666 15.3337 36.3999 17.067 35.7333C17.2003 35.4666 17.3337 35.0666 17.467 34.7999C16.0003 35.3333 14.267 36.1333 12.5337 37.1999C13.7337 35.4666 15.467 32.7999 14.4003 31.0666C13.467 29.5999 10.9337 29.3333 6.66699 30.1333C8.40032 28.9333 10.667 26.9333 10.4003 25.1999C10.0003 23.5999 7.60032 22.5333 3.06699 21.9999C4.13366 21.4666 5.73366 20.3999 7.06699 19.1999V18.2666C5.20033 20.2666 1.73366 21.9999 1.73366 21.9999L0.666992 22.5333L1.86699 22.6666C8.00032 23.1999 9.46699 24.3999 9.73366 25.4666C10.1337 27.3333 6.26699 29.9999 4.66699 30.7999L2.40033 31.9999L4.93366 31.3333C11.3337 29.7333 13.3337 30.5333 13.867 31.4666C14.9337 33.1999 12.0003 36.9333 10.8003 38.2666L9.06699 40.1333V40.1333ZM29.867 36.3999L30.5337 36.1333C29.7337 35.4666 28.8003 34.7999 27.6003 34.2666C27.467 34.3999 27.467 34.6666 27.3337 34.7999C28.4003 35.3333 29.2003 35.8666 29.867 36.3999Z" fill="black"/>
<path d="M64.2674 12.5333C65.0674 12.6667 65.8674 12.8 66.8007 12.8C65.4674 14.1333 62.934 16.9333 63.6007 19.6C63.8674 20.6667 64.8007 21.6 66.134 22.2667L67.2007 22C65.4674 21.3333 64.534 20.4 64.134 19.3333C63.334 16.2667 67.8674 12.5333 67.8674 12.5333L68.8007 11.7333L67.734 12C66.4007 12.1333 65.334 12.1333 64.4007 11.8667C64.4007 12.1333 64.4007 12.2667 64.2674 12.5333ZM71.734 23.0667C70.534 22.9333 69.4674 22.6667 68.534 22.4L68.8007 23.2C69.2007 23.3333 69.734 23.4667 70.134 23.4667C69.8674 23.6 69.4674 23.7333 69.0674 23.8667L69.334 24.5333C70.8007 24 71.734 23.7333 71.8674 23.7333L73.4674 23.3333L71.734 23.0667V23.0667ZM43.0674 6.66667C44.6674 6.66667 46.134 5.73333 47.6007 3.73333C47.4674 5.33333 47.4674 7.6 49.0674 8.66667C50.934 9.86667 54.4007 8.66667 59.334 5.06667C59.334 6.13333 59.4674 8.26667 60.6674 10C61.8674 11.7333 60.934 9.86667 61.334 9.73333C59.8674 7.46667 60.134 4.4 60.134 4.4L60.2674 3.6L59.6007 4C53.334 8.66667 50.6674 8.8 49.4674 8C47.4674 6.66667 48.534 2.26667 48.534 2.26667L49.0674 0L47.8674 2C46.2674 4.66667 44.6674 6 43.0674 5.86667C40.0007 5.73333 37.8674 0.666667 37.8674 0.666667L37.6007 0L37.334 0.666667C35.2007 5.86667 33.6007 6.93333 32.534 6.8C31.0674 6.66667 29.8674 3.86667 29.6007 2.66667V2.53333L28.934 2.66667C29.2007 3.86667 29.4674 5.33333 28.6674 5.73333C26.6674 7.06667 19.6007 2.26667 17.0674 0.266667L16.6674 0.8C18.4007 2.8 19.0674 4.53333 18.4007 6C16.534 10.8 4.66738 11.7333 4.53405 11.7333L3.06738 11.8667L4.53405 12.4C6.13405 12.9333 7.20072 13.7333 7.86738 14.4C7.86738 14.1333 8.00072 13.8667 8.00072 13.6C7.46738 13.2 6.80072 12.6667 6.00072 12.2667C6.66738 12.1333 7.60072 12 8.53405 11.8667C8.53405 11.7333 8.66738 11.4667 8.66738 11.3333C8.66738 11.3333 11.6007 10.5333 15.8674 9.46667C17.334 8.66667 18.4007 7.73333 18.934 6.53333C19.4674 5.33333 19.2007 3.86667 18.4007 2.4C21.334 4.4 26.934 8 29.0674 6.53333C29.4674 6.26667 29.734 5.73333 29.8674 5.2C30.2674 5.86667 30.6674 6.53333 31.2007 7.06667C32.2674 6.93333 33.334 6.93333 34.4007 6.8C35.4674 5.86667 36.534 4.13333 37.6007 1.6C38.4007 3.2 40.4007 6.53333 43.0674 6.66667V6.66667ZM58.934 31.7333C59.334 29.3333 62.8007 27.2 66.0007 25.8667C65.2007 26 64.4007 26.1333 63.734 26.2667C61.0674 27.7333 58.6674 29.4667 58.2674 31.7333C58.0007 33.0667 58.534 34.2667 59.8674 35.6C57.4674 34.9333 52.934 34.1333 51.334 36.1333C50.4007 37.3333 50.534 39.3333 51.8674 42C49.6007 40 45.0674 36.8 42.134 38.1333C41.4674 38.5333 40.934 39.0667 40.534 39.8667V40.8C40.4007 40.8 40.2674 40.9333 40.134 40.9333C39.734 42.2667 39.734 43.8667 39.8674 45.8667C39.2007 45.0667 38.0007 43.6 36.8007 42.2667C36.534 42.4 36.4007 42.4 36.134 42.5333C38.134 44.6667 40.0007 47.0667 40.0007 47.2L40.6674 48L40.534 46.9333C40.134 42.2667 40.6674 39.6 42.4007 38.8C45.8674 37.2 52.6674 43.7333 52.8007 43.8667L54.534 45.6L53.334 43.4667C51.334 40.1333 50.934 37.8667 51.8674 36.6667C53.8674 34.2667 61.2007 36.6667 61.2007 36.8L63.334 37.4667L61.6007 36.1333C59.6007 34.5333 58.8007 33.0667 58.934 31.7333V31.7333Z" fill="black"/>
</g>
<defs>
<clipPath id="clip0_45_4538">
<rect width="72.6667" height="50" fill="white" transform="translate(0.666992)"/>
</clipPath>
</defs>
</svg>

<svg viewBox="0 0 74 50" fill="none" xmlns="http://www.w3.org/2000/svg"><g clip-path="url(#prefix__clip0_45_4538)"><path d="M29.467 7.2c.667-.133 1.333-.133 2-.133C30.4 6.133 29.734 4.8 29.734 4.8c.266 1.2.133 2-.267 2.4zm-11.6 2c2.8-.667 6.133-1.2 9.467-1.733C23.6 6.667 17.067 2 17.067 2c2.8 3.2 2.533 5.467.8 7.2zM5.2 32.267c17.067-4.267 6.267 7.466 6.267 7.466 1.867-1.2 3.467-2.133 5.067-2.8 1.066-2.133 2-4 2.666-5.066 2.134-3.867 9.067-16.267 9.334-16.8.266-.534.266-1.067-.667-.8-1.067.266-14.267 4.133-20.267 8 0 0-.266-.667-.4-2.134-2 1.867-4.8 3.2-4.8 3.2 16.4 1.467 2.8 8.934 2.8 8.934zM8.134 12.8c-1.867.4-3.2.4-3.2.4 1.2.533 2.133.933 2.8 1.467.133-.534.266-1.2.4-1.867zM52.4 21.067s2.4-.534 2.8-.534c-.133-1.066-1.066-5.6-1.066-5.6L52.4 21.067z" fill="#000"/><path d="M60.667 9.866s1.2-.533 4.133-.533c-.266 2.267-2 12.8-2 12.8l1.2.4 4.534-.933 1.2 3.466s-7.2 1.2-8.267 1.2V24.8s-.667-.534-1.067-.8c.134-2.267.267-14.134.267-14.134z" stroke="#000" stroke-width=".5" stroke-miterlimit="10"/><path d="M72 24.533c-1.066-.133-2-.4-2.8-.533l.4 1.2s-7.2 1.2-8.266 1.2v-1.467s-.667-.533-1.067-.8c.267-2.4.4-14.266.4-14.266h.134c-.8-2.134-.534-4.4-.534-4.4-14.666 10.8-11.733-2.134-11.733-2.134C42.667 12.8 37.867 2 37.867 2c-.933 2.4-2 3.867-2.8 4.8h3.2s-3.466 10.667-6.4 17.6c-2 4.8-3.866 8.933-4.8 11.2.934.267 1.734.667 2.4 1.067l11.334-5.2s-.534 6-.267 9.2c-.8.266-2.533.933-4.667 1.866 2.267 2.4 4.667 5.467 4.667 5.467-1.733-17.6 12.8-3.467 12.8-3.467-7.467-12.533 8.267-7.2 8.267-7.2-9.867-7.066 10.4-12.8 10.4-12.8zm-32.266 4.534c0-.934-.267-1.6-.267-1.6l-1.066-.534v-9.066l-1.2-.134 2.666-6.4s4.267-.933 6.4-.8c.267 2.267.667 5.334.667 5.334l-4.4.933-.4 2.133c.533 0 1.333-.133 2.133-.266 0 .8-.133 2.8-.133 2.8s-1.6.133-2.4.266l-.533 3.334 5.866-.8s.4 2.933.4 3.466c-1.466.534-5.6 1.067-7.733 1.334zM55.334 24l-4 .667-.533 2.933s-.8.133-1.467.267V26.4l-1.333-.8 2.4-14.533s2.266-.934 5.6-.8c1.066 4.266 3.333 16.4 3.333 16.4l-2.8.666-1.2-3.333z" fill="#000"/><path d="M62.667 22.267l1.2.4 1.6-.267c-4.133-3.466 2.667-8.933 2.667-8.933-1.6.266-2.934.133-4-.267-.534 3.867-1.467 9.067-1.467 9.067z" fill="#000"/><path d="M8.667 11.334s16.666-4.8 29.6-4.667c0 0-3.467 10.667-6.4 17.6-2.8 6.933-5.334 12.266-5.6 12.933-.267.667.533.533.533.533l14-6.4s-.533 6-.267 9.2c-1.733.667-7.2 2.934-13.066 4.8-7.2 2.534-15.067 4.4-17.467 4.4 0 0 6.933-13.866 9.067-17.866C21.2 28 28.134 15.6 28.4 15.067c.267-.534.267-1.067-.666-.8-1.067.267-14.267 4.133-20.267 8 0 .133-1.333-2.8 1.2-10.933v0z" stroke="#000" stroke-width=".5" stroke-miterlimit="10"/><path d="M9.067 40.133L11.2 38.8c2.134-1.333 4.134-2.4 5.867-3.067.133-.266.267-.666.4-.933a27.603 27.603 0 00-4.933 2.4c1.2-1.733 2.933-4.4 1.866-6.133-.933-1.467-3.466-1.734-7.733-.934 1.733-1.2 4-3.2 3.733-4.933-.4-1.6-2.8-2.667-7.333-3.2 1.067-.533 2.667-1.6 4-2.8v-.933C5.2 20.267 1.734 22 1.734 22l-1.067.533 1.2.134c6.133.533 7.6 1.733 7.867 2.8.4 1.866-3.467 4.533-5.067 5.333L2.4 32l2.534-.667c6.4-1.6 8.4-.8 8.933.134 1.067 1.733-1.867 5.466-3.067 6.8l-1.733 1.866zm20.8-3.733l.667-.267c-.8-.666-1.734-1.333-2.934-1.866-.133.133-.133.4-.266.533a13.96 13.96 0 012.533 1.6zM64.267 12.533c.8.134 1.6.267 2.534.267-1.334 1.333-3.867 4.133-3.2 6.8.266 1.067 1.2 2 2.533 2.667L67.201 22c-1.734-.667-2.667-1.6-3.067-2.667-.8-3.066 3.733-6.8 3.733-6.8l.934-.8-1.067.267c-1.333.133-2.4.133-3.333-.133 0 .266 0 .4-.134.666zm7.467 10.534c-1.2-.134-2.267-.4-3.2-.667l.267.8c.4.133.933.267 1.333.267-.267.133-.667.266-1.067.4l.267.666c1.467-.533 2.4-.8 2.533-.8l1.6-.4-1.733-.266zm-28.667-16.4c1.6 0 3.067-.934 4.534-2.934-.134 1.6-.134 3.867 1.466 4.934 1.867 1.2 5.334 0 10.267-3.6 0 1.066.133 3.2 1.333 4.933 1.2 1.733.267-.133.667-.267-1.467-2.266-1.2-5.333-1.2-5.333l.133-.8-.666.4c-6.267 4.667-8.934 4.8-10.134 4-2-1.333-.933-5.733-.933-5.733L49.067 0l-1.2 2c-1.6 2.667-3.2 4-4.8 3.867-3.066-.134-5.2-5.2-5.2-5.2L37.601 0l-.267.667c-2.133 5.2-3.733 6.266-4.8 6.133-1.467-.133-2.667-2.933-2.933-4.133v-.134l-.667.134c.267 1.2.533 2.666-.267 3.066-2 1.334-9.066-3.466-11.6-5.466l-.4.533c1.734 2 2.4 3.733 1.734 5.2-1.867 4.8-13.734 5.733-13.867 5.733l-1.467.134 1.467.533c1.6.533 2.667 1.333 3.333 2 0-.267.134-.533.134-.8-.534-.4-1.2-.933-2-1.333.666-.134 1.6-.267 2.533-.4 0-.134.133-.4.133-.534 0 0 2.934-.8 7.2-1.866 1.467-.8 2.534-1.734 3.067-2.934.533-1.2.267-2.666-.533-4.133 2.933 2 8.533 5.6 10.666 4.133.4-.266.667-.8.8-1.333.4.667.8 1.333 1.334 1.867 1.066-.134 2.133-.134 3.2-.267 1.066-.933 2.133-2.667 3.2-5.2.8 1.6 2.8 4.933 5.466 5.067zm15.867 25.066c.4-2.4 3.867-4.533 7.067-5.866-.8.133-1.6.266-2.267.4-2.667 1.466-5.067 3.2-5.467 5.466-.266 1.334.267 2.534 1.6 3.867-2.4-.667-6.933-1.467-8.533.533-.933 1.2-.8 3.2.533 5.867-2.266-2-6.8-5.2-9.733-3.867-.667.4-1.2.934-1.6 1.734v.933c-.133 0-.267.133-.4.133-.4 1.334-.4 2.934-.267 4.934-.666-.8-1.866-2.267-3.066-3.6-.267.133-.4.133-.667.266 2 2.134 3.867 4.534 3.867 4.667l.666.8-.133-1.067c-.4-4.666.133-7.333 1.867-8.133 3.466-1.6 10.266 4.933 10.4 5.067l1.733 1.733-1.2-2.133c-2-3.334-2.4-5.6-1.467-6.8 2-2.4 9.334 0 9.334.133l2.133.667-1.733-1.334c-2-1.6-2.8-3.066-2.667-4.4z" fill="#000"/></g><defs><clipPath id="prefix__clip0_45_4538"><path fill="#fff" transform="translate(.667)" d="M0 0h72.667v50H0z"/></clipPath></defs></svg>
